images/ok.svg

<svg width="20" height="32" viewBox="0 0 20 32" fill="none" xmlns="http://www.w3.org/2000/svg">
<path d="M17.5677 20.8685C15.8557 21.9557 13.5002 22.3868 11.9444 22.5492L13.2503 23.8363L18.0176 28.6036C19.7607 30.3905 16.9241 33.1834 15.1622 31.459C13.9688 30.2468 12.2194 28.4974 10.3949 26.6729L5.62763 31.4527C3.86571 33.1709 1.02906 30.3531 2.79103 28.5974C4.00313 27.3852 5.73389 25.6358 7.55828 23.8301L8.84538 22.543C7.30839 22.3806 4.91535 21.9744 3.18464 20.8623C1.14779 19.5502 0.254311 18.7817 1.04159 17.1759C1.50393 16.2637 2.77229 15.4952 4.453 16.8198C4.453 16.8198 6.72105 18.6255 10.3824 18.6255C14.0438 18.6255 16.3118 16.8198 16.3118 16.8198C17.9926 15.5014 19.2547 16.2637 19.7233 17.1759C20.498 18.7817 19.6045 19.5502 17.5677 20.8685ZM2.27243 8.10372C2.27243 3.62388 5.91504 0 10.3762 0C14.8373 0 18.4799 3.62388 18.4799 8.10372C18.4799 12.5648 14.8373 16.1887 10.3762 16.1887C5.91504 16.1887 2.27243 12.5648 2.27243 8.10372ZM6.39617 8.10372C6.39617 10.2968 8.18309 12.0837 10.3762 12.0837C12.5692 12.0837 14.3562 10.2968 14.3562 8.10372C14.3562 5.89193 12.5692 4.10496 10.3762 4.10496C8.18309 4.10496 6.39617 5.89193 6.39617 8.10372Z" fill="url(#paint0_linear_36_1304)"/>
<defs>
<linearGradient id="paint0_linear_36_1304" x1="13.0937" y1="5.87186" x2="2.14223" y2="22.0983" gradientUnits="userSpaceOnUse">
<stop offset="0.1177" stop-color="#7ACA37"/>
<stop offset="0.2561" stop-color="#70C53A"/>
<stop offset="0.4886" stop-color="#56B641"/>
<stop offset="0.7848" stop-color="#2C9F4E"/>
<stop offset="1" stop-color="#098C58"/>
</linearGradient>
</defs>
</svg>

<svg width="20" height="32" fill="none" xmlns="http://www.w3.org/2000/svg"><path d="M17.568 20.869c-1.712 1.087-4.068 1.518-5.624 1.68l1.306 1.287 4.768 4.768c1.743 1.787-1.094 4.58-2.856 2.855a1002.838 1002.838 0 0 0-4.767-4.786l-4.767 4.78c-1.762 1.718-4.599-1.1-2.837-2.856 1.212-1.212 2.943-2.961 4.767-4.767l1.287-1.287c-1.537-.162-3.93-.569-5.66-1.68-2.037-1.313-2.93-2.081-2.143-3.687.462-.912 1.73-1.68 3.411-.356 0 0 2.268 1.805 5.93 1.805 3.66 0 5.929-1.805 5.929-1.805 1.68-1.319 2.943-.556 3.411.356.775 1.606-.118 2.374-2.155 3.693ZM2.272 8.104C2.272 3.624 5.915 0 10.376 0c4.461 0 8.104 3.624 8.104 8.104 0 4.46-3.643 8.085-8.104 8.085-4.461 0-8.104-3.624-8.104-8.085Zm4.124 0a3.986 3.986 0 0 0 3.98 3.98 3.986 3.986 0 0 0 3.98-3.98c0-2.212-1.787-3.999-3.98-3.999s-3.98 1.787-3.98 3.999Z" fill="url(#a)"/><defs><linearGradient id="a" x1="13.094" y1="5.872" x2="2.142" y2="22.098" gradientUnits="userSpaceOnUse"><stop offset=".118" stop-color="#7ACA37"/><stop offset=".256" stop-color="#70C53A"/><stop offset=".489" stop-color="#56B641"/><stop offset=".785" stop-color="#2C9F4E"/><stop offset="1" stop-color="#098C58"/></linearGradient></defs></svg>
